X:1
T:Sol occasum
T:Sol occasum
T:Heinrich Isaac
T:Source : Trium vocum cantiones---Nürnberg---J.Petreius---1541. Editor : André Vierendeels (30/08/15).
T:Notes : Original clefs : G2, C2, C4 Original note values have been halved Editorial accidentals above the staff Square brackets indicate ligatures Lyrics from Sequens for Christmas
C:Heinrich Isaac
%%score [ 1 2 3 ]
L:1/8
Q:1/4=90
M:2/2
K:F
V:1 treble nm="Discantus" snm="D"
V:2 treble nm="Altus" snm="A"
V:3 treble-8 nm="Tenor" snm="T"
V:1
 z8 | z4 c4 | c4 d4 | e4 c2 f2- | fe d2 c2 d2- | dc c4 B2 | c6 A2 | G2 c3 BAG | F4 z4 | %9
w: |Sol|oc- *|ca- * *|* * sum, oc- ca-||sum- ne|_ sci- * * *|ens,|
 z2 c2 c2 BA | G4 E4- | E2 F2 G4 | FGAB c2 A2 | B2 d4 cB | A2 d4 c2 | d3 e f4- | f2 e4 d2- | %17
w: stel- la _ _|_ sem-||* * * * per ru-|ti- lans, _ _|_ ru- *|||
 d2 cB c4 | d2 B2 A4 | z2 G2 AG c2- | c2 B2 c4 | z2 F2 G2 A2 | B4 A2 F2 | G2 A2 B4 | A8 |] %25
w: |* ti- lans,|sem- per _ cla-|* * ra,|sem- per cla-|ra, _ _|sem- per cla-|ra.|
V:2
 F4 F4 | G4 A4 | F4 z2 F2 | G2 A3 GFE | DC F4 F2- | FE F2 D4 | C4 z4 | E4 F4 | D4 E4- | E4 z4 | %10
w: Sol oc-|* ca-|sum, Sol|oc- ca- * * *|* * sum ne-|* * * sci-|ens,|ne- sci-|* ens,|_|
 E4 G4 | G4 E4 | z2 C3 DEF | G2 D2 E4 | F4 E4 | D8 | z4 z2 G2 | F2 ED E4 | D2 G3 F F2- | %19
w: stel- la|sem- per|ru- * * *||ti- *|lans,|ru-|ti- * * *||
 F2 E2 F2 F2 | E2 D2 C2 F2 | FEDC DB, C2- | C2 B,2 C2 D2- | DC F4 E2 | F8 |] %25
w: * * lans, sem-|per _ _ cla-||* * ra, sem|_ per cla- *|ra.|
V:3
 z8 | z8 | z8 | z8 | z4 F4 | F4 G4 | A4 F4 | z4 A4 | B4 G4 | A4 A4 | c8 | c8 | A8 | G8 | A8 | B8 | %16
w: ||||Sol|oc- *|ca- sum|ne-|* sci-|ens, stel-|la|sem-|||per|ru-|
 A4 G4 | A8 | z4 F4 | G4 F4 | G4 A4 | B3 A G2 F2 | G4 F2 B2- | B2 A2 G4 | F8 |] %25
w: ti- *|lans,|sem-|per _|cla- *||||ra.|

